!!!COM: Bach, Johann Sebastian
!!!OPR: Joh. Seb. Bachs vierstimmige Choralgesänge
!!!XEN: Four-part Chorales
!!!OTL: 75. Herr Gott, dich loben wir
!!!SCT: BWV 328
!!!SCA: Thematisch-systematisches Verzeichnis der musikalischen Werke Johann Sebastian Bach: Bach-Werke-Verzeichnis (Schmieder)
!!!YOR: Bach Gesellschaft Edition xxxix
!!!ENC: Steven Rasmussen
!!!CDT: 1685/3//-1750/7/28/
!!!OCY: Deutschland
!!!YEC: Copyright (c) 1994, 2000 Center for Computer Assisted Research in the Humanities
!!!YEM: Rights to all derivative editions reserved
!!!YEN: United States of America
**kern	**silbe	**kern	**silbe	**kern	**silbe	**kern	**silbe
*I:[SOPRANO]	*I:[SOPRANO]	*I:[ALTO]	*I:[ALTO]	*I:[TENORE]	*I:[TENORE]	*I:[BASSO]	*I:[BASSO]
*>[A,B,B,C,C,D,D,E,E,F,F,G,H,H,I]	*	*>[A,B,B,C,C,D,D,E,E,F,F,G,H,H,I]	*	*>[A,B,B,C,C,D,D,E,E,F,F,G,H,H,I]	*	*>[A,B,B,C,C,D,D,E,E,F,F,G,H,H,I]	*
*>A	*	*>A	*	*>A	*	*>A	*
*clefG2	*	*clefG2	*	*clefGv2	*	*clefF4	*
*k[]	*	*k[]	*	*k[]	*	*k[]	*
*C:	*	*C:	*	*C:	*	*C:	*
*M4/4	*	*M4/4	*	*M4/4	*	*M4/4	*
4e	Herr	4B	.	4G	.	4EE	.
=1	=1	=1	=1	=1	=1	=1	=1
4g	Gott,	4e	.	4B	.	4E	.
4a	dich	4f	.	4d	.	4D	.
4cc	lo-	8fL	.	4G	.	4C	.
.	.	8eJ	.	.	.	.	.
4a	-ben	4d	.	8GL	.	4D	.
.	.	.	.	8FJ	.	.	.
=2	=2	=2	=2	=2	=2	=2	=2
2a;	wir,	2c;	.	2E;	.	2AA;	.
4r	.	4r	.	4r	.	4r	.
4cc	Herr	8eL	.	8cL	.	4A	.
.	.	8f#J	.	8dJ	.	.	.
=3	=3	=3	=3	=3	=3	=3	=3
4cc	Gott,	8gL	.	8eL	.	8EL	.
.	.	8aJ	.	8dJ	.	8F#J	.
4b	wir	8aL	.	4d	.	4G	.
.	.	8gJ	.	.	.	.	.
4a	dan-	8gL	.	(16eLL	.	4C	.
.	.	.	.	16dJJ	.	.	.
.	.	16f#L	.	4c)	.	.	.
.	.	16eJJ	.	.	.	.	.
4a	-ken	4f#	.	.	.	4D	.
.	.	.	.	16dLL	.	.	.
.	.	.	.	16cJJ	.	.	.
=4	=4	=4	=4	=4	=4	=4	=4
2.g;	dir.	2.d;	.	2.B;	.	2.GG;	.
=!|:	=!|:	=!|:	=!|:	=!|:	=!|:	=!|:	=!|:
*>B	*	*>B	*	*>B	*	*>B	*
4cc	Dich,All'auch	4g	.	4e	.	4E	.
=5	=5	=5	=5	=5	=5	=5	=5
4cc	GottEn-Che-	8gL	.	8eL	.	4A	.
.	.	16f#L	.	16dL	.	.	.
.	.	16eJJ	.	16cJJ	.	.	.
4cc	Va--gel-ru-	8f#L	.	4d	.	8DL	.
.	.	8aJ	.	.	.	16EL	.
.	.	.	.	.	.	16F#JJ	.
4b	-terund-bim	8aL	.	4d	.	4.G	.
.	.	16gL	.	.	.	.	.
.	.	16f#JJ	.	.	.	.	.
4a	inall'und	8eL	.	8cL	.	.	.
.	.	8dJ	.	16dL	.	8F#	.
.	.	.	.	16cJJ	.	.	.
=6	=6	=6	=6	=6	=6	=6	=6
4b	E-Him-Se-	(8d	.	8BL	.	8GL	.
.	.	4g)	.	16eL	.	8EJ	.
.	.	.	.	16dJJ	.	.	.
4a	-wig--mels--ra-	.	.	4c#	.	4A	.
.	.	16f#LL	.	.	.	.	.
.	.	16eJJ	.	.	.	.	.
4a;	-keit,-heer',-phim	4f#;	.	4d;	.	4D;	.
4a	eh-undsin-	8eL	.	4e	.	4C#	.
.	.	8gJ	.	.	.	.	.
=7	=7	=7	=7	=7	=7	=7	=7
4a	-retwas-gen	8gL	.	4.d	.	4D	.
.	.	8fJ	.	.	.	.	.
4g	diedaim-	8fL	.	.	.	4E	.
.	.	16eL	.	16cLL	.	.	.
.	.	16dJJ	.	16BJJ	.	.	.
4a	Weltdie--mer	4c	.	8AL	.	8FL	.
.	.	.	.	8GJ	.	8EJ	.
4b	|-netmit	16dLL	.	4F	.	4D	.
.	.	16eJ	.	.	.	.	.
.	.	8fJ	.	.	.	.	.
=8	=8	=8	=8	=8	=8	=8	=8
4cc	weitdei-ho-	(16eLL	.	8GL	.	4C	.
.	.	16f#JJ	.	.	.	.	.
.	.	4g)	.	8eJ	.	.	.
4a	und-ner-her	.	.	8.dL	.	4D	.
.	.	8f#	.	.	.	.	.
.	.	.	.	16cJk	.	.	.
4g;	breit.Ehr',Stimm':	4d;	.	4B;	.	4GG;	.
=:!!:	=:!!:	=:!!:	=:!!:	=:!!:	=:!!:	=:!!:	=:!!:
*>C	*	*>C	*	*>C	*	*>C	*
4e	Hei-Hei-	4c	.	4G	.	4C	.
=9	=9	=9	=9	=9	=9	=9	=9
4g	-lig-lig	4d	.	8GL	.	4BB	.
.	.	.	.	16AL	.	.	.
.	.	.	.	16BJJ	.	.	.
4a	istist	8eL	.	8cL	.	8AAL	.
.	.	16dL	.	8AJ	.	8FJ	.
.	.	16cJJ	.	.	.	.	.
4b	un-un-	(16fLL	.	8AL	.	8DL	.
.	.	16eJJ	.	.	.	.	.
.	.	4d)	.	16G#L	.	8BBJ	.
.	.	.	.	16F#JJ	.	.	.
4b	-ser-ser	.	.	4G#	.	4E	.
.	.	16eLL	.	.	.	.	.
.	.	16dJJ	.	.	.	.	.
=10	=10	=10	=10	=10	=10	=10	=10
2.a;	Gott!Gott!	2.c;	.	2.E;	.	2.AA;	.
=:!!:	=:!!:	=:!!:	=:!!:	=:!!:	=:!!:	=:!!:	=:!!:
*>D	*	*>D	*	*>D	*	*>D	*
4b	Hei-	8gL	.	8eL	.	8EL	.
.	.	8aJ	.	8d#J	.	8F#J	.
=11	=11	=11	=11	=11	=11	=11	=11
4b	-lig	4g	.	4e	.	8GL	.
.	.	.	.	.	.	8F#J	.
8bL	ist	4g	.	4e	.	4E	.
8ccJ	.	.	.	.	.	.	.
4dd	un-	4g	.	4d	.	4BB	.
4a	-ser	8gL	.	8eL	.	4C#	.
.	.	16fL	.	8AJ	.	.	.
.	.	16eJJ	.	.	.	.	.
=12	=12	=12	=12	=12	=12	=12	=12
4a	Gott,	4.f	.	8AL	.	4D	.
.	.	.	.	16dL	.	.	.
.	.	.	.	16cJJ	.	.	.
4g	der	.	.	8BL	.	4E	.
.	.	16eLL	.	16cL	.	.	.
.	.	16dJJ	.	16BJJ	.	.	.
4a	Herr	8cL	.	8AL	.	8FL	.
.	.	16dL	.	16BL	.	8EJ	.
.	.	16eJJ	.	16cJJ	.	.	.
4b	.	4f	.	4d	.	4D	.
=13	=13	=13	=13	=13	=13	=13	=13
4cc	Ze-	(16eLL	.	8GL	.	4C	.
.	.	16f#JJ	.	.	.	.	.
.	.	4g)	.	8eJ	.	.	.
4a	-ba-	.	.	8.dL	.	4D	.
.	.	8f#	.	.	.	.	.
.	.	.	.	16cJk	.	.	.
4g;	-oth!	4d;	.	4B;	.	4GG;	.
=:!!:	=:!!:	=:!!:	=:!!:	=:!!:	=:!!:	=:!!:	=:!!:
*>E	*	*>E	*	*>E	*	*>E	*
4cc	Dein'Derdie	8gL	DieDich,den	4c	.	8EL	.
.	.	8fnJ	.	.	.	8DJ	.
=14	=14	=14	=14	=14	=14	=14	=14
4cc	gÃ¶tt-hei-teu-	8eL	gan-Gottheil'-	4G	.	8CL	.
.	.	8f#J	.	.	.	8DJ	.
4cc	-lich-li--ren	8gL	-zeVa--gen	8GL	.	8EL	.
.	.	8aJ	.	8dJ	.	8F#J	.
4b	Macht-genMÃ¤r-	8aL	wer--ter,Geist	4d	.	4G	.
.	.	8gJ	.	.	.	.	.
4a	undzwÃ¶lf-trer	8gL	-teimund	4d	.	4D	.
.	.	8f#J	.	.	.	.	.
=15	=15	=15	=15	=15	=15	=15	=15
4b	Herr-Bo-all-	8gL	Chri-hÃ¶ch-TrÃ¶-	4.d	.	4GG	.
.	.	8f#J	.	.	.	.	.
4a	-lich--ten-zu-	4e	-sten--sten-ster	.	.	4AA	.
.	.	.	.	8c#	.	.	.
4a;	-keitZahl,-mal	4f#;	-heitThron,wert	4d;	.	4DD;	.
4a	gehtundlo-	4d	rÃ¼hmtdei-mit	8FL	.	8DL	.
.	.	.	.	8GJ	.	8EJ	.
=16	=16	=16	=16	=16	=16	=16	=16
4a	Ã¼-die-ben	16cLL	dich-nenrech-	8AL	.	4F	.
.	.	16AJ	.	.	.	.	.
.	.	8dJ	.	8FJ	.	.	.
4g	-berlie-dich,	8dL	aufrech--tem	4G	.	4E	.
.	.	8cJ	.	.	.	.	.
4a	Himm'l-benHerr,	8cL	Er--tenDienst	8GL	.	4D	.
.	.	16dL	.	8F#J	.	.	.
.	.	16cJJ	.	.	.	.	.
4b	undPro-mit	8BL	-denund_sie	4d	.	8GL	.
.	.	8dJ	.	.	.	8FJ	.
=17	=17	=17	=17	=17	=17	=17	=17
4cc	Er--phe-gro-	4.g	al-ein'-lobt	8cL	.	8EL	.
.	.	.	.	8eJ	.	8CJ	.
4a	-den-ten-ssem	.	.	8.dL	.	4D	.
.	.	8f#	-le--genund	.	.	.	.
.	.	.	.	16cJk	.	.	.
4g;	weit.all',Schall.	4d;	-zeit.Sohn,ehrt.	4B;	.	4GG;	.
=:!!:	=:!!:	=:!!:	=:!!:	=:!!:	=:!!:	=:!!:	=:!!:
*>F	*	*>F	*	*>F	*	*>F	*
4a	Duderdu	4fn	DuEinNun	4d	.	4D	.
=18	=18	=18	=18	=18	=18	=18	=18
4a	KÃ¶n'gJung-hast	16eLL	sitzstRich-hilf	8AL	.	4C#	.
.	.	16fJ	.	.	.	.	.
.	.	8gJ	.	8eJ	.	.	.
4a	der-fraudem	8gL	zur-teruns,	8eL	.	4D	.
.	.	8f#J	.	16dL	.	.	.
.	.	.	.	16cJJ	.	.	.
4g	Eh-LeibTod	8f#L	Rech-duHerr,	4B	.	4.E	.
.	.	16eL	.	.	.	.	.
.	.	16f#JJ	.	.	.	.	.
4b	-ren,nichtzer-	4g	-tenzu-den	4e	.	.	.
.	.	.	.	.	.	8F#	.
=19	=19	=19	=19	=19	=19	=19	=19
4b	Je-hast-stÃ¶rt	8gL	Got--kÃ¼nf-Die-	4d	.	4G	.
.	.	8fJ	.	.	.	.	.
4a	-suver-sein	4g	-tes-tig-nern	4e	.	4C#	.
4a;	Christ,-schmÃ¤ht,Macht	(8gL	gleichbistdein,	4d;	.	4D;	.
.	.	8f;J)	.	.	.	.	.
4a	Gottzu\0+er-und	8cL	mitAl-die	8AL	.	4F	.
.	.	16fL	.	8B-J	.	.	.
.	.	16eJJ	.	.	.	.	.
=20	=20	=20	=20	=20	=20	=20	=20
4a	Va--lÃ¶-all'	4.f	al--les,mit	4c	.	8AAL	.
.	.	.	.	.	.	8BB-J	.
4g	-ters-senChri-	.	.	4c	.	4C	.
.	.	8e	-lerwasdein'm	.	.	.	.
8aL	ew'-das-sten	4f	Ehr,totBlut	4c	.	8FFL	.
8bJ	.	.	.	.	.	8GGJ	.
4cc	-germensch-zum	4f	in'sunder-	4c	.	8AAL	.
.	.	.	.	.	.	8BBnJ	.
=21	=21	=21	=21	=21	=21	=21	=21
4g	Sohn-lichHim-	8fL	Va-le--lÃ¶-	4.c	.	4C	.
.	.	8eJ	.	.	.	.	.
4g	duGe--mel	4d	-ters-bend-set	.	.	4GG	.
.	.	.	.	8B	.	.	.
4e;	bist,-schlecht,bracht.	4c;	Reich.ist.sein.	4G;	.	4C;	.
=:|!	=:|!	=:|!	=:|!	=:|!	=:|!	=:|!	=:|!
*>G	*	*>G	*	*>G	*	*>G	*
4f	Lass	4c	.	4A	.	4FF	.
=22	=22	=22	=22	=22	=22	=22	=22
4d	uns	8cL	.	4G	.	4GG	.
.	.	8BJ	.	.	.	.	.
4f	im	8cL	.	8CL	.	8AAL	.
.	.	8dJ	.	8GJ	.	8BBJ	.
4e	Him-	8dL	.	4G	.	4C	.
.	.	8cJ	.	.	.	.	.
4d	-mel	4d	.	8GL	.	4BB	.
.	.	.	.	8DJ	.	.	.
=23	=23	=23	=23	=23	=23	=23	=23
4e	ha-	8dL	.	4A	.	4AA	.
.	.	16cL	.	.	.	.	.
.	.	16BJJ	.	.	.	.	.
4f#	-ben	8cL	.	8AL	.	4D	.
.	.	16BL	.	8DJ	.	.	.
.	.	16AJJ	.	.	.	.	.
4g;	Teil	4B;	.	4D;	.	4GG;	.
4g	mit	4d	.	4B	.	8GL	.
.	.	.	.	.	.	8FJ	.
=24	=24	=24	=24	=24	=24	=24	=24
4g	den	8eL	.	8cL	.	8EL	.
.	.	8fJ	.	8dJ	.	8DJ	.
4g	Heil'-	8gL	.	8eL	.	4C	.
.	.	8eJ	.	8cJ	.	.	.
4.a	-gen	8cL	.	8AL	.	8FL	.
.	.	8fJ	.	8cJ	.	16GL	.
.	.	.	.	.	.	16AJJ	.
.	.	16fLL	.	16dLL	.	4B-	.
.	.	16e	.	16eJ	.	.	.
8f	im	16d	.	8fJ	.	.	.
.	.	16c#JJ	.	.	.	.	.
=25	=25	=25	=25	=25	=25	=25	=25
4g	ew'-	8dL	.	8fL	.	8B-L	.
.	.	8AJ	.	8eJ	.	8C#J	.
4f	-gen	8AL	.	8dL	.	4D	.
.	.	8dJ	.	8AJ	.	.	.
4e;	Heil!	(8dL	.	4A;	.	4AA;	.
.	.	8c#;J)	.	.	.	.	.
4c	Hilf	4A	.	4E	.	4AA	.
=26	=26	=26	=26	=26	=26	=26	=26
4d	dei-	4G	.	4D	.	4BB	.
4f	-nem	8cL	.	8AL	.	8AAL	.
.	.	8dJ	.	8GJ	.	8BBJ	.
4e	Volk,	8dL	.	4G	.	4C	.
.	.	8cJ	.	.	.	.	.
4d	Herr	8cL	.	4G	.	4GG	.
.	.	8BJ	.	.	.	.	.
=27	=27	=27	=27	=27	=27	=27	=27
4f	Je-	(16ALL	.	8CL	.	4FF	.
.	.	16BJJ	.	.	.	.	.
.	.	4c)	.	8AJ	.	.	.
4d	-su	.	.	8.GL	.	4GG	.
.	.	8B	.	.	.	.	.
.	.	.	.	16FJk	.	.	.
4c;	Christ,	4G;	.	4E;	.	4C;	.
4g	und	4c	.	8EL	.	8CL	.
.	.	.	.	8FJ	.	8DJ	.
=28	=28	=28	=28	=28	=28	=28	=28
4g	seg-	8cL	.	4G	.	4E	.
.	.	8dJ	.	.	.	.	.
4g	-ne	4e	.	8cL	.	4C	.
.	.	.	.	8B-J	.	.	.
4.a	was	8eL	.	8AL	.	4FF	.
.	.	16dL	.	8FJ	.	.	.
.	.	16c#JJ	.	.	.	.	.
.	.	4d	.	8FL	.	8BB-L	.
8f	dein	.	.	16GL	.	8AAJ	.
.	.	.	.	16AJJ	.	.	.
=29	=29	=29	=29	=29	=29	=29	=29
4g	Erb-	8dL	.	4B-	.	4GG	.
.	.	8eJ	.	.	.	.	.
4f	-teil	8eL	.	4A	.	4D	.
.	.	8dJ	.	.	.	.	.
4e;	ist,	(8dL	.	4A;	.	4AA;	.
.	.	8c#;J)	.	.	.	.	.
4f	wart'	4d	.	4A	.	8DL	.
.	.	.	.	.	.	8CJ	.
=30	=30	=30	=30	=30	=30	=30	=30
4f	und	8dL	.	4G	.	8BBL	.
.	.	8cJ	.	.	.	8AAJ	.
4f	pfleg'	8BL	.	4G	.	4GG	.
.	.	8dJ	.	.	.	.	.
4e	ihr'	8dL	.	4G	.	4C	.
.	.	8cJ	.	.	.	.	.
4d	zu	8cL	.	4G	.	4GG	.
.	.	8BJ	.	.	.	.	.
=31	=31	=31	=31	=31	=31	=31	=31
4f	al-	4.c	.	8FL	.	8AAL	.
.	.	.	.	8AJ	.	8FFJ	.
4d	-ler	.	.	8.GL	.	4GG	.
.	.	8B	.	.	.	.	.
.	.	.	.	16FJk	.	.	.
4c;	Zeit	4G;	.	4E;	.	4CC;	.
4g	und	4c	.	8EL	.	8CL	.
.	.	.	.	8FJ	.	8DJ	.
=32	=32	=32	=32	=32	=32	=32	=32
4g	heb'	8cL	.	8GL	.	8EL	.
.	.	8dJ	.	8AJ	.	8FJ	.
4g	sie	8eL	.	4B-	.	4G	.
.	.	16dL	.	.	.	.	.
.	.	16eJJ	.	.	.	.	.
4.a	hoch	4f	.	4c	.	8FL	.
.	.	.	.	.	.	8EJ	.
.	.	4f	.	8.dL	.	4D	.
8f	in	.	.	.	.	.	.
.	.	.	.	16cJk	.	.	.
=33	=33	=33	=33	=33	=33	=33	=33
4g	E-	4.e	.	8B-L	.	8DL	.
.	.	.	.	8AJ	.	8C#J	.
4f	-wig-	.	.	4A	.	4D	.
.	.	8d	.	.	.	.	.
4e;	-keit.	4c#;	.	4A;	.	4AA;	.
8eL	TÃ¤g-	4cn	.	4A	.	4A	.
8fJ	.	.	.	.	.	.	.
=34	=34	=34	=34	=34	=34	=34	=34
4g	-lich,	8BL	.	8GL	.	8EL	.
.	.	16cL	.	16AL	.	8DJ	.
.	.	16dJJ	.	16BJJ	.	.	.
4a	Herr	8eL	.	8cL	.	4C	.
.	.	8dJ	.	8BJ	.	.	.
4a	Gott,	8cL	.	8AL	.	8FL	.
.	.	16dL	.	16BL	.	8EJ	.
.	.	16eJJ	.	16cJJ	.	.	.
4a	wir	4f	.	4d	.	4D	.
=35	=35	=35	=35	=35	=35	=35	=35
4cc	lo-	[4e	lo-	16cLL	lo-	8AL	.
.	.	.	.	16B	.	.	.
.	.	.	.	16A	.	8GJ	.
.	.	.	.	16GJJ	.	.	.
4a	-ben	16eLL]	.	8AL	-ben	8FL	.
.	.	16dJJ	.	.	.	.	.
.	.	16cLL	-ben	8fJ	.	8DJ	.
.	.	16BJJ	.	.	.	.	.
4a;	dich	4c;	.	4e;	.	4A;	.
4a	und	4e	.	8cL	.	8AAL	.
.	.	.	.	8dJ	.	8BBJ	.
=36	=36	=36	=36	=36	=36	=36	=36
4a	ehr'n	8eL	.	8eL	.	8CL	.
.	.	8fJ	.	8dJ	.	8DJ	.
4g	dein'n	4g	.	8dL	.	4.E	dein'n
.	.	.	.	8cJ	.	.	.
8aL	Na-	4f	.	8cL	.	.	.
8bJ	.	.	.	8dJ	.	8DL	Na-
4cc	-men	8gL	.	8GL	.	8EJ	.
.	.	8fJ	.	8AJ	.	8F	-men
=37	=37	=37	=37	=37	=37	=37	=37
4g	ste-	4e	.	(8B	.	8GL	.
.	.	.	.	4c)	.	8FJ	.
4g	-tig-	4d	.	.	.	8GL	.
.	.	.	.	8B	.	8GGJ	.
4e;	-lich.	4c;	.	4G;	.	4C;	.
=!|:	=!|:	=!|:	=!|:	=!|:	=!|:	=!|:	=!|:
*>H	*	*>H	*	*>H	*	*>H	*
4a	Be-seizeig'	4e	.	4c	.	4AA	.
=38	=38	=38	=38	=38	=38	=38	=38
4a	-hÃ¼t'gnÃ¤-uns	4f	.	4d	.	4D	.
4a	uns-digdei-	8eL	.	8AL	.	8CL	.
.	.	16dL	.	8fJ	.	8DJ	.
.	.	16cJJ	.	.	.	.	.
4g	heut',uns,-ne	4B	.	8fL	.	8EL	.
.	.	.	.	16eL	.	8FJ	.
.	.	.	.	16dJJ	.	.	.
4b	ooBarm-	8BL	.	8eL	.	8GL	.
.	.	16cL	.	8AJ	.	8FJ	.
.	.	16dJJ	.	.	.	.	.
=39	=39	=39	=39	=39	=39	=39	=39
4b	treu-Her--her-	4e	.	8GL	.	8EL	.
.	.	.	.	8F#J	.	8DJ	.
4b	-er-re-zig-	16eLL	.	4G	.	4C#	.
.	.	16f#J	.	.	.	.	.
.	.	8gJ	.	.	.	.	.
4a;	Gott,Gott,-keit,	(8gL	.	4d;	.	4D;	.
.	.	8f#;J)	.	.	.	.	.
4a	vorseiwie	4fn	.	4c	.	8FL	.
.	.	.	.	.	.	8EJ	.
=40	=40	=40	=40	=40	=40	=40	=40
4a	al-gnÃ¤-un-	4f	.	8cL	.	4D	.
.	.	.	.	8B-J	.	.	.
4g	-ler-dig-ser	4c	.	4B-	.	4E	.
4a	SÃ¼nd'unsHoff-	4c	.	8AL	.	4F	.
.	.	.	.	8GJ	.	.	.
4cc	undin-nung	8cL	.	4F	.	8AAL	.
.	.	8dJ	.	.	.	8BBJ	.
=41	=41	=41	=41	=41	=41	=41	=41
4g	Mis-al-zu	[4e	.	8EL	.	4C	.
.	.	.	.	8GJ	.	.	.
4g	-se--lerdir	16eLL]	.	4B-	.	4GG	.
.	.	16c#JJ	.	.	.	.	.
.	.	8d	.	.	.	.	.
4e;	-tat,Noth!steht.	(8dL	.	4A;	.	4AA;	.
.	.	8c#;J)	.	.	.	.	.
=:|!	=:|!	=:|!	=:|!	=:|!	=:|!	=:|!	=:|!
*>I	*	*>I	*	*>I	*	*>I	*
8fL	Auf	4d	.	8AL	.	4D	.
8eJ	.	.	.	8GJ	.	.	.
=42	=42	=42	=42	=42	=42	=42	=42
4d	dich	8AL	.	4F	.	8DL	.
.	.	16B-L	.	.	.	8CJ	.
.	.	16cJJ	.	.	.	.	.
4f	hof-	4d	.	8FL	.	8BB-L	.
.	.	.	.	16GL	.	8AAJ	.
.	.	.	.	16AJJ	.	.	.
4g	-fen	8dL	.	8B-L	.	4GG	.
.	.	8eJ	.	16cL	.	.	.
.	.	.	.	16B-JJ	.	.	.
4a	wir,	8eL	.	8AL	.	4FF	.
.	.	8dJ	.	8FJ	.	.	.
=43	=43	=43	=43	=43	=43	=43	=43
4g	lie-	8dL	.	8B-L	.	4EE	.
.	.	8c#J	.	8GJ	.	.	.
4f	-ber	4d	.	4A	.	4DD	.
4e;	Herr,	4c#;	.	4A;	.	4AA;	.
4f	in	4d	.	4A	.	8DL	.
.	.	.	.	.	.	8CJ	.
=44	=44	=44	=44	=44	=44	=44	=44
4f	Schan-	4d	.	4B-	.	8BB-L	.
.	.	.	.	.	.	8AAJ	.
4g	-den	8dL	.	4B-	.	4GG	.
.	.	8eJ	.	.	.	.	.
4a	lass	8fL	.	4c	.	8FFL	.
.	.	8eJ	.	.	.	16GGL	.
.	.	.	.	.	.	16AAJJ	.
8gL	uns	4d	.	4B-	.	4BB-	.
8fJ	.	.	.	.	.	.	.
=45	=45	=45	=45	=45	=45	=45	=45
4g	nim-	4d	.	4B-	.	8BB-L	.
.	.	.	.	.	.	8GGJ	.
4f	-mer-	16dLL	.	8AL	.	4D	.
.	.	16c#J	.	.	.	.	.
.	.	8dJ	.	8G#J	.	.	.
4e;	-mehr.	4c#;	.	4A;	.	4AA;	.
4g	A-	4d	A-	4Gn	A-	4BBn	A-
=46	=46	=46	=46	=46	=46	=46	=46
4e	.	4c	.	4G	.	2.C	.
4c	.	4G	.	4E	.	.	.
2d	.	4A	.	2F	.	.	.
.	.	8G#L	.	.	.	8BBL	.
.	.	8AJ	.	.	.	8AAJ	.
=47	=47	=47	=47	=47	=47	=47	=47
[1e	-men!	8BL	.	4E	.	4.GG#	.
.	.	8cJ	.	.	.	.	.
.	.	4d	.	2B	.	.	.
.	.	.	.	.	.	8EE	.
.	.	[2c	.	.	.	8AAL	.
.	.	.	.	.	.	8BB	.
.	.	.	.	[4A	.	8C	.
.	.	.	.	.	.	8DJ	.
=48	=48	=48	=48	=48	=48	=48	=48
1e;]	.	4c]	.	4A]	.	2E	.
.	.	8BL	.	8G#L	.	.	.
.	.	8AJ	.	8F#J	.	.	.
.	.	2B;	-men!	2G#;	-men!	2EE;	-men!
==|!	==|!	==|!	==|!	==|!	==|!	==|!	==|!
*-	*-	*-	*-	*-	*-	*-	*-
!!!RWG: Key is interpreted using the Humdrum key tool.
!!!END: 1994/06/08
!!!EMD: Converted from MuseData to Humdrum Dec 19, 2000, by Andreas Kornstaedt using muse2kern.
!!!EED: Craig Stuart Sapp
!!!EEV: 2024/03/31
!!!ONB: Some non-unicode characters
